app/dist/common/images/middle-east-specialized-cables-co.svg

<svg height="18" viewBox="0 0 18 18" width="18" xmlns="http://www.w3.org/2000/svg"><path d="m0 0h18v18h-18z" fill="#f0f3fa"/><path d="m13 6h-8v-1h8z" fill="#231f20"/><path d="m12 5h-6v-1h6z" fill="#58595b"/><path d="m10 4h-2v-1h2z" fill="#ad5628"/><path d="m12.97 14h.03v-8h-8v.23c1.44.03 4.05.6 5.99 2.72a7.82 7.82 0 0 1 1.98 5.05zm-3.51 0a5.23 5.23 0 0 0 -1.52-3.46 4.93 4.93 0 0 0 -2.94-1.24v4.7z" fill="#39b54a"/></svg>

<!-- by TradingView --><svg width="18" height="18" viewBox="0 0 18 18" xmlns="http://www.w3.org/2000/svg"><path fill="#F0F3FA" d="M0 0h18v18H0z"/><path d="M13 6H5V5h8v1Z" fill="#231F20"/><path d="M12 5H6V4h6v1Z" fill="#58595B"/><path d="M10 4H8V3h2v1Z" fill="#AD5628"/><path d="M12.97 14H13V6H5v.23c1.44.03 4.05.6 5.99 2.72A7.82 7.82 0 0 1 12.97 14Zm-3.51 0a5.23 5.23 0 0 0-1.52-3.46A4.93 4.93 0 0 0 5 9.3V14h4.46Z" fill="#39B54A"/></svg>
